assets/azureipgroups/original.svg

<svg height="18" viewBox="0 0 18 18" width="18" xmlns="http://www.w3.org/2000/svg" xmlns:xlink="http://www.w3.org/1999/xlink"><linearGradient id="a" gradientUnits="userSpaceOnUse" x1="12.726" x2="12.726" y1="15.602" y2="9.963"><stop offset="0" stop-color="#32bedd"/><stop offset=".18" stop-color="#32caea"/><stop offset=".41" stop-color="#32d2f2"/><stop offset=".78" stop-color="#32d4f5"/></linearGradient><path d="m.5 4.429h9.548v5.327a.32.32 0 0 1 -.321.321h-8.906a.32.32 0 0 1 -.321-.321z" fill="#83b9f9"/><path d="m.821 2.389h8.906a.32.32 0 0 1 .321.321v1.719h-9.548v-1.719a.32.32 0 0 1 .321-.321" fill="#1f56a3"/><rect fill="#f2f2f2" height=".822" rx=".161" width="6.979" x="1.784" y="3.003"/><path d="m4.221 7.187h9.558v5.326a.32.32 0 0 1 -.321.321h-8.916a.32.32 0 0 1 -.321-.321z" fill="#83b9f9"/><path d="m4.542 5.156h8.906a.32.32 0 0 1 .321.321v1.71h-9.538v-1.71a.32.32 0 0 1 .311-.321" fill="#1f56a3"/><rect fill="#f2f2f2" height=".822" rx=".161" width="6.979" x="5.506" y="5.77"/><path d="m7.952 9.963h9.548v5.327a.32.32 0 0 1 -.321.321h-8.906a.32.32 0 0 1 -.321-.321z" fill="url(#a)"/><path d="m8.273 7.923h8.906a.32.32 0 0 1 .321.321v1.719h-9.548v-1.719a.32.32 0 0 1 .321-.321" fill="#0078d4"/><g fill="#0078d4"><circle cx="14.874" cy="12.438" r=".774"/><circle cx="12.759" cy="12.438" r=".774"/><circle cx="10.577" cy="12.438" r=".774"/></g><rect fill="#f2f2f2" height=".822" rx=".161" width="6.979" x="9.236" y="8.537"/></svg>

<svg xmlns="http://www.w3.org/2000/svg" width="18" height="18" viewBox="0 0 18 18"><linearGradient id="a" x1="12.726" x2="12.726" y1="15.602" y2="9.963" gradientUnits="userSpaceOnUse"><stop offset="0" stop-color="#32bedd"/><stop offset=".18" stop-color="#32caea"/><stop offset=".41" stop-color="#32d2f2"/><stop offset=".78" stop-color="#32d4f5"/></linearGradient><path fill="#83b9f9" d="M.5 4.429h9.548v5.327a.32.32 0 0 1-.321.321H.821A.32.32 0 0 1 .5 9.756z"/><path fill="#1f56a3" d="M.821 2.389h8.906a.32.32 0 0 1 .321.321v1.719H.5V2.71a.32.32 0 0 1 .321-.321"/><rect width="6.979" height=".822" x="1.784" y="3.003" fill="#f2f2f2" rx=".161"/><path fill="#83b9f9" d="M4.221 7.187h9.558v5.326a.32.32 0 0 1-.321.321H4.542a.32.32 0 0 1-.321-.321z"/><path fill="#1f56a3" d="M4.542 5.156h8.906a.32.32 0 0 1 .321.321v1.71H4.231v-1.71a.32.32 0 0 1 .311-.321"/><rect width="6.979" height=".822" x="5.506" y="5.77" fill="#f2f2f2" rx=".161"/><path fill="url(#a)" d="M7.952 9.963H17.5v5.327a.32.32 0 0 1-.321.321H8.273a.32.32 0 0 1-.321-.321z"/><path fill="#0078d4" d="M8.273 7.923h8.906a.32.32 0 0 1 .321.321v1.719H7.952V8.244a.32.32 0 0 1 .321-.321"/><g fill="#0078d4"><circle cx="14.874" cy="12.438" r=".774"/><circle cx="12.759" cy="12.438" r=".774"/><circle cx="10.577" cy="12.438" r=".774"/></g><rect width="6.979" height=".822" x="9.236" y="8.537" fill="#f2f2f2" rx=".161"/></svg>
